src/pos-icons/bank.svg

<svg height="24" viewBox="0 0 24 24" width="24" xmlns="http://www.w3.org/2000/svg"><path d="m11.5 1-9.5 5v2h19v-2m-5 4v7h3v-7m-17 12h19v-3h-19m8-9v7h3v-7m-9 0v7h3v-7z"/></svg>

<?xml version="1.0" encoding="UTF-8"?><!DOCTYPE svg PUBLIC "-//W3C//DTD SVG 1.1//EN" "http://www.w3.org/Graphics/SVG/1.1/DTD/svg11.dtd"><svg xmlns="http://www.w3.org/2000/svg" xmlns:xlink="http://www.w3.org/1999/xlink" version="1.1" id="mdi-bank" width="24" height="24" viewBox="0 0 24 24"><path d="M11.5,1L2,6V8H21V6M16,10V17H19V10M2,22H21V19H2M10,10V17H13V10M4,10V17H7V10H4Z" /></svg>
